/* XPM */
static const char *background1[] = {
/* columns rows colors chars-per-pixel */
"32 32 123 2 ",
"   c #25360F",
".  c #27380F",
"X  c #272B11",
"o  c #2D2D14",
"O  c #312D16",
"+  c #332D19",
"@  c #263411",
"#  c #2B3513",
"$  c #273910",
"%  c #2B3C12",
"&  c #2F3E1A",
"*  c #323316",
"=  c #323C15",
"-  c #343419",
";  c #39331A",
":  c #343B19",
">  c #3A3C1B",
",  c #393C23",
"<  c #2E4212",
"1  c #324414",
"2  c #394417",
"3  c #344A15",
"4  c #394C16",
"5  c #34431A",
"6  c #3A441B",
"7  c #364A19",
"8  c #3A4A1A",
"9  c #375015",
"0  c #3D521A",
"q  c #3A4422",
"w  c #3B4B22",
"e  c #3E452A",
"r  c #3E4B28",
"t  c #3E5023",
"y  c #43541A",
"u  c #414C26",
"i  c #43472F",
"p  c #434C2A",
"a  c #445523",
"s  c #44532B",
"d  c #4B5629",
"f  c #47582C",
"g  c #474730",
"h  c #464F30",
"j  c #4A4E32",
"k  c #4E4A3C",
"l  c #504D3A",
"z  c #465232",
"x  c #495532",
"c  c #4D5935",
"v  c #4C553A",
"b  c #4F5A3B",
"n  c #53533F",
"m  c #525C3D",
"M  c #54603C",
"N  c #56663D",
"B  c #525C40",
"V  c #555D40",
"C  c #595D46",
"Z  c #585748",
"A  c #5C5D4B",
"S  c #5E5A4E",
"D  c #566045",
"F  c #586143",
"G  c #586542",
"H  c #5E6B47",
"J  c #5C6349",
"K  c #5D674A",
"L  c #5F674C",
"P  c #626F44",
"I  c #60674E",
"U  c #60694B",
"Y  c #60684E",
"T  c #626053",
"R  c #616650",
"E  c #626951",
"W  c #646B53",
"Q  c #666C52",
"!  c #676A57",
"~  c #666C56",
"^  c #686C57",
"/  c #656358",
"(  c #6B665F",
")  c #676B58",
"_  c #6A6C5B",
"`  c #6C6E5D",
"'  c #677054",
"]  c #697057",
"[  c #6C725C",
"{  c #6F7361",
"}  c #727464",
"|  c #757C63",
" . c #76726A",
".. c #78736C",
"X. c #77786A",
"o. c #7C7C6E",
"O. c #7E7B73",
"+. c #827E77",
"@. c #837F78",
"#. c #7F8072",
"$. c #808075",
"%. c #85837A",
"&. c #848678",
"*. c #88847E",
"=. c #8A887F",
"-. c #8B8C7F",
";. c #8A8781",
":. c #8A8A81",
">. c #8C8B81",
",. c #908E85",
"<. c #918E88",
"1. c #919086",
"2. c #94928B",
"3. c #95948C",
"4. c #989690",
"5. c #9C9A93",
"6. c #9C9A94",
"7. c #9F9D97",
"8. c #A09F97",
"9. c #A1A099",
"0. c #A5A49D",
"q. c #AAA8A2",
"w. c #B1AFAA",
/* pixels */
"R , * % V 7 < 1 ~ 9.A T =.>  .L 3 % 8 % $ o o # % 3 % 1 # % 1 7 ",
"1 : # = 5 8 F 8 +.6.1.; + * : $ r 5 3 % # + O o # < < 4 3 $ 3 % ",
"3 > 0 L x < % $ ` 7.M p : 6 : # j :.w % - % = = 1   1 % 1 $ 3 9 ",
"2 : 1 E &.< < # 1 Y 9 0 3 1 y 3 = q m < 5 6 5 = # % % $ < 1 < 1 ",
"# # $ r B 7 < V 5 % % 1 1 < 1 1 1 # % : 5 7 P < * = % 1 3 < 1 # ",
": # $ 1 p Q ] 5 <   $ % % < 1 4 1 # 1 1 1 1 Y 8 6 - 5 3 = : - 8 ",
": % < c 2.*.4.>.K 9 5 <   < % 3 3 s G c 3 3 s d 8 1 1 3 3 : : : ",
"1 # x & w / ..*.I 3 a : = % 1 3 1 6 / ~ s 1 m s < 3 1 < < 1 3 7 ",
"8 b E >.| c ^ e L x 3 1 5 $ 3 < 3 < w 1 w 1 s < < 1 w 1 < = $ 1 ",
"q.:.v 6.%.$.' 8.O.x f 3 % 3 % # % $ # # % = 8 7 ~ 1.3.V F q = ! ",
"} G % q K w V } J m 1 . 1 = # % 3 1 5 > - ; = 2 J O.X.v h r V k ",
"% % . < % 1 5 #.4.#.% < < $ < 5 3 1 1 6 ; # % * % $ # @ 5 %.2.% ",
"< 1 $ $ % 1 % <.0.>.v $ % $ 7 2 < 1 1 * - > % * p w 8 6 o.` z < ",
"< = C F s $ = S *.7.D < 3 < % @ < % < 1 : : * g 3.} %.+.m K b $ ",
"# = 5 $ < < 2 ! o.z 1 3 < < % % % $ < 8 : ; : q :.W I [ [ 7.>.% ",
"% % % < < N 0 5 p w X.% $ < # 1 < < < 5 6 : * # 5 =.w 1 p >.w.x ",
"% #   % < w 7 5 7 q m 1 $ < : % % % $ < 1 1 = 8 * e < < < p ) < ",
"# # # % % 1 1 < 1 1 7 < ~ = = o = 1 < % $ < % # # 1 V 4.t $ $ # ",
"O - * X # = % < 1 7 [ m > 6 * O # 3 3 1 # # 1 5 : 1.3.X.$ # # - ",
"# - * o # o = 1 y x s } q 7 > > X = $ 1 4 3 6 > l ;.%.5 @ O ; : ",
": - * - : * $ 3 3 < q q 5 9 0 6 - O % 1 1 1 : = q ,.J 3 : = = 1 ",
": - 6 > = : # # < < 3 ~ < $ 1 8 1 # * 3 3 t p p 1 z < 3 2 % 3 < ",
"< 1 1 > ; 6 = % # < v ] z 5 < 4 8 > O = s ~ W I 5 1 1 3 % $ % < ",
"% % $ 7 6 > O : o # } } *.s 3 y = - $ 3 # % * 5 6 x 1 1 $ % $ $ ",
"# # % $ % 8 - > 6 = x ! %.3 3 3 3 = 1 1 % : : 0 3 u E $ $ % < : ",
"# $ < % $ 1 1 3 < $ 3 E x 3 % 1 7 w < # 1 % 1 3 < 7 *.-.r < < 1 ",
"= X < $ % < $ % 3 1 3 7 c 3 1 N +.w 1 < < 3 1 3 1 % } <.q.~ % $ ",
"q o $ < < $ 3 % % p w 7 * 5 7 U s % 1 < < % % 3 3 3 F @.>.o.E q ",
"% < $ < 1 < 3 % $ 3 ` u Y h 5.m 7 w 1 < 1 1 % % % < % 2 1 < 0 3 ",
"1 $ @ < $ $ < < 1 < < % F _ n - # < 3 < 3 1 < 1 < < % # % q 1 3 ",
"p F w   w z 1 1 % % < 7 ^ Z 4.>.1 1 1 1 3 1 % < < % < p H % J { ",
"m i 5 $ = # $ 1 % w 7 #.7., ( ,.0 3 = $ 1 < % < . < < 6 T % q < "
};
