/* XPM */
static const char *background2[] = {
/* columns rows colors chars-per-pixel */
"32 32 135 2 ",
"   c #312E08",
".  c #353408",
"X  c #3A350D",
"o  c #3D3C0B",
"O  c #403D0E",
"+  c #3E400A",
"@  c #43430D",
"#  c #464A0C",
"$  c #494C0E",
"%  c #4D530E",
"&  c #4F580D",
"*  c #50570F",
"=  c #525C0E",
"-  c #474510",
";  c #4A4513",
":  c #4C4B12",
">  c #514D14",
",  c #534F18",
"<  c #4F5211",
"1  c #525413",
"2  c #555B12",
"3  c #595C15",
"4  c #565318",
"5  c #5A5519",
"6  c #5C5B19",
"7  c #615E1C",
"8  c #56610F",
"9  c #58650F",
"0  c #5A6A0F",
"q  c #5F710F",
"w  c #576110",
"e  c #5B6313",
"r  c #5B6910",
"t  c #5C6811",
"y  c #5C6A10",
"u  c #5D6A11",
"i  c #5D6912",
"p  c #5D6A12",
"a  c #5F6A13",
"s  c #5D6D10",
"d  c #5F6914",
"f  c #5F6A14",
"g  c #5E6A12",
"h  c #5F6019",
"j  c #5E6019",
"k  c #5E601A",
"l  c #5F6119",
"z  c #606715",
"x  c #606417",
"c  c #616417",
"v  c #616616",
"b  c #606F12",
"n  c #616E13",
"m  c #626F12",
"M  c #616815",
"N  c #616A14",
"B  c #606B14",
"V  c #616B14",
"C  c #626A15",
"Z  c #626816",
"A  c #626817",
"S  c #616A16",
"D  c #626B16",
"F  c #626B17",
"G  c #646A17",
"H  c #606C14",
"J  c #626C15",
"K  c #636C16",
"L  c #656E17",
"P  c #626C15",
"I  c #616518",
"U  c #61641A",
"Y  c #646719",
"T  c #65661B",
"R  c #63621D",
"E  c #64631D",
"W  c #65671D",
"Q  c #67651F",
"!  c #626419",
"~  c #636818",
"^  c #626918",
"/  c #666A19",
"(  c #666B19",
")  c #656A1B",
"_  c #676C19",
"`  c #656A19",
"'  c #686D1B",
"]  c #696A1C",
"[  c #68691F",
"{  c #696C1D",
"}  c #6B6D1E",
"|  c #696D1B",
" . c #627211",
".. c #627112",
"X. c #647312",
"o. c #647313",
"O. c #647114",
"+. c #657314",
"@. c #677515",
"#. c #657115",
"$. c #697317",
"%. c #697616",
"&. c #697417",
"*. c #6B7B16",
"=. c #677118",
"-. c #69711A",
";. c #68701A",
":. c #6B711A",
">. c #6E721B",
",. c #6F761B",
"<. c #6D701C",
"1. c #6F731F",
"2. c #6C731B",
"3. c #6E7A18",
"4. c #6D7C18",
"5. c #6E7919",
"6. c #71751E",
"7. c #72781F",
"8. c #747D1C",
"9. c #747D1D",
"0. c #737B1D",
"q. c #635C21",
"w. c #6A6620",
"e. c #6C6A20",
"r. c #6D6B22",
"t. c #736F24",
"y. c #6F7220",
"u. c #747522",
"i. c #787724",
"p. c #777C22",
"a. c #757B21",
"s. c #797C23",
"d. c #74831B",
"f. c #7B8122",
"g. c #86882A",
/* pixels */
"{ 3 e X. .t # 2 f 8 $ 3 2 o 1 w 8 = m w % < t $ : 1 E e 5 2 1 $.",
"5 2 r w d 2 : w * $ d $ X < 3 < 1 ) e 1 $ # d 1 2 5 q.6 E @ 1 6 ",
"4 w.d e 7.2 2 @ 8 % % d m Z 2 R j @ @ o 2 w % s Z :.Z E 4 6 5 3 ",
"e.3 3 = } p.3 w 0 w % 9 4.9.Z 1 { 1 3 : 3 $ = : Z d :.1 > ) @ 2 ",
"] L # w : ] :.% 2 a  .d m w @.+.8.w 1 e % w 2 w e e 6 ) +.1 2 G ",
"1.e 2 6 2 4 Z 8 w Z X.t ' Z w Y 3 < 1 z $ % O : : 7 6 - 1 % e 2 ",
",.2 $ 2 2 < ^ w 9 0 = t %.J 1 1 $ @ 2 z % 2 # . , Y 5 ; > o % 2 ",
"e $ $ w # 2 % z % % 2 % d e U e - > # e % 3 # - 1 1 , 1 3 O X $ ",
"Z 3 2 2 w J d 1 2 2 @ $ % t _ j z 3 : 2 Z 1 2 d w U $ z :.5.d t ",
":.) e 3 ' 3 ) y.e 0 % t % 1 U U 6 e % w d ,.: t d U ' } i.6 ' 8 ",
"= +.L 6.3 ] { 7 3 B Z 2 < 2 t.4 4 O e # $ 3 # < 2 r +.f.,.p.G 6 ",
"t p.1.U 3 , _ 5.L f.,.{ e 3 L u.6 , 2 # # 2 o < t w 2 6.&.2 ^ w ",
"d ' p.<.3 3 w J 4.p.< Z z e 1 7.6.U w + $ o . < e G @ 1.0._ ) &.",
"6 ) i.3 Q 3 3 e 5.] ] J 7.,.3 6 ) 1 @ $ @ < = < : 3 Z ,.6.,.' ' ",
"Z 2 w $ w $ 3 < L 7.r.f w 7.f.t 2 e @ o X 2 @ 6 2 6 B *.,.J 6.u.",
"e 0 8 3 8 1 3 % ] f.7.e.e d.p.p.U % @ % 1 @ : 2 = 1 z ) ] ' 7._ ",
"d e d t w w e :.] s.7.9.0.f.9.p.5.:.w 1 : U 2 u.1 : 1 3 U :.' w ",
"m 8.J  .d 1.+.5.w t Z L i.u._ J w = f = : > U { 4 : : 2 ) 2 1 : ",
"U 3 ' ,.) t e =  .d 1 1.w 5.2 m 3 z _ < 1 3 ) e - 1 U = e : E i.",
"3 2 : ] %.% # 2 8 e 2 1 U @.t t 2 = ' j 2 3 U { U d 5.@.2 @ o 6 ",
"1 6 % * +.* w w L 5.6 3 2 Z L e % e :.f.{ 2 G ,.&.+.t J d 2 7 6 ",
"- e 2 : = $ - $ d U ^ 2 J = r w % @ 4 E p.0.p.p.] +. .e L _ } 3 ",
"$ ^ 3 2 U w o o t s 8 = w 8.Z < < : : : $ 3 1.' 3 J $.w % $ 1 . ",
", w 1.U ,._ & % = s q $.9 0 Z # * % X @ @ Z d Z Z +.s % # o @ 1 ",
"6 7 4 e.U j % = = d % 1 * Z < % % @ 2 2 @ w w ' 5.J 2 = % @ % 3 ",
": 3 4 2 e @ . t e 2 :.1 2 @ $ = t +.- J = :.' U f s.U s @ . @ 9 ",
"G z 6 4 1 % 1 = % +.d 2 { 1 w $ J R - E ) _ 2 +.1.:.U d _ # 2 e ",
"8.5.+.Z e 0 2 t +.1 z } : 1 ) :.d 4 4 f.g.t j e <.5.1 2 w Z d d ",
"L e 2 2 e s # % < w O.) w ' 2 : 1 i.1 6.p.8.m ] e e m e z w m w ",
"= 2 % w % @ $ # # 3 % U U 2 % 2 w Z L ' J  .w 1 w t 5.Z L J +.%.",
"2 # = d e * = $ 1 s # @ %   o F $ % = 2 1 +.8 = w e L 8 2 % = *.",
"$ m J +.d m = # = % = 2 # o $ 2 1 % d 8 = = d U 9.d 2 J < 2 = d "
};
