/* XPM */
static const char *background3[] = {
/* columns rows colors chars-per-pixel */
"32 32 137 2 ",
"   c #26250F",
".  c #272510",
"X  c #2A2711",
"o  c #272910",
"O  c #2D2B12",
"+  c #302714",
"@  c #342D16",
"#  c #382E17",
"$  c #372D18",
"%  c #392E18",
"&  c #2E3112",
"*  c #2F3912",
"=  c #353216",
"-  c #383317",
";  c #353A16",
":  c #383B17",
">  c #373018",
",  c #393418",
"<  c #3A3418",
"1  c #3A3518",
"2  c #3A3419",
"3  c #3B3419",
"4  c #3B3519",
"5  c #393718",
"6  c #3B3619",
"7  c #3B3719",
"8  c #3C3519",
"9  c #3C3619",
"0  c #3C3719",
"q  c #3D3719",
"w  c #3D341A",
"e  c #3C351A",
"r  c #3E341A",
"t  c #3D361A",
"y  c #3E361A",
"u  c #3E371A",
"i  c #3B3319",
"p  c #383818",
"a  c #393818",
"s  c #393918",
"d  c #3A3819",
"f  c #3A3B18",
"g  c #3C3819",
"h  c #3C3919",
"j  c #3D381A",
"k  c #3C391A",
"l  c #3D391A",
"z  c #3E381A",
"x  c #3E391A",
"c  c #3E381B",
"v  c #3E391B",
"b  c #3D3A1A",
"n  c #3D3B1A",
"m  c #3E3A1A",
"M  c #3E3A1B",
"N  c #3F3A1B",
"B  c #3A3D18",
"V  c #3B3C19",
"C  c #3C3D19",
"Z  c #3D3D19",
"A  c #3C3E19",
"S  c #3D3C1A",
"D  c #3E3C1A",
"F  c #3E3D1A",
"G  c #3D3E1A",
"H  c #3E3E1A",
"J  c #3E3F1A",
"K  c #3E3E1B",
"L  c #3F3E1B",
"P  c #3D3A1A",
"I  c #40361B",
"U  c #40361C",
"Y  c #41371C",
"T  c #40361B",
"R  c #40391B",
"E  c #413A1B",
"W  c #413F1B",
"Q  c #42391C",
"!  c #43381D",
"~  c #43391D",
"^  c #423A1C",
"/  c #423B1C",
"(  c #433B1D",
")  c #413C1C",
"_  c #413D1C",
"`  c #423D1C",
"'  c #433D1D",
"]  c #413F1C",
"[  c #423F1C",
"{  c #443E1D",
"}  c #443F1D",
"|  c #453F1E",
" . c #423B1C",
".. c #384117",
"X. c #3A4017",
"o. c #394417",
"O. c #3B4018",
"+. c #3B4318",
"@. c #3D4019",
"#. c #3C4219",
"$. c #3E401A",
"%. c #3E411A",
"&. c #3D4519",
"*. c #3E421A",
"=. c #3F4B19",
"-. c #40401B",
";. c #41421B",
":. c #40441A",
">. c #41441B",
",. c #41451B",
"<. c #41461B",
"1. c #43401D",
"2. c #43431C",
"3. c #42421D",
"4. c #44421D",
"5. c #45401E",
"6. c #47421E",
"7. c #46431E",
"8. c #45441D",
"9. c #44461D",
"0. c #45461D",
"q. c #46471E",
"w. c #43431C",
"e. c #48471F",
"r. c #48421F",
"t. c #404A1A",
"y. c #424B1C",
"u. c #464A1D",
"i. c #47481F",
"p. c #44491D",
"a. c #484E1F",
"s. c #494420",
"d. c #4A4820",
"f. c #4A4B20",
"g. c #4D4A21",
"h. c #4B4C20",
"j. c #4A5020",
/* pixels */
"$ $ > { i.] $ - 7 O L @.q b b > % b @ $ > $ > > 5 0.3.; X O w > ",
"> = $ - 3.+.j.L X & : *.*.- ..-.> @ @ $ $ $ ; > Q - L 7 > @ > @ ",
"@ O X - L +.d @ & = 0.7 - L @.: w b O O X @ ] 7 > b >.7 q > > > ",
"$ % > Q >.X.- > - d =.L 5 d 7 L > 7 $ o   $ > @ $ q L @.L > q > ",
"U w O $ L b $ > > > 5 q - ; @.b 7 > X O @ $ $ > > 5.-.-.b > 7 w ",
"q @ 7 $ Q d w > 5 > 3.> q q 5.] { 7 - # X $ $ b Q g.] @ $ $ @ 7 ",
"L > > q q 5.w > > % q L b ] L d.] E : @ @ $ $ : b b > $ $ % # $ ",
"> $ 7 i.0.{ E q > % $ > > { L 3.I > > O @ $ @ ; : V b w @ @ % > ",
"O @ > >.0.5.> @ > $ % % w b V e.L = = = X - b = * O b q % O % @ ",
"$ > > ] d.: $ # > @ $ % w $ & t.o.L @ $ ; : =.& = d ] $ = @ $ @ ",
"$ $ @ > > ] 7 > O = > b 7 > V -.: > $ O * & @ O > b > $ @ $ $ > ",
"$ % $ q > w U > = @ % > $ 7 - > 7 d ; = O - > @ Q w @ $ # % % > ",
"w w > Q b b q > X > 7 @ % % w I w b L d > $ % $ > q > @ @ % $ { ",
"w b @ > d q > > $ ] q % % % I > E q 3.d { > > q > q > > > w $ w ",
"b ) @ @ q b $ @ > > $ % $ > % > q b I q @ 7 % % % U w > w % $ q ",
"q % w @ w > O @ @ > q w O % $ @ $ 3.Q > $ w $ % > q q % > $ $ 7 ",
"w % % @ @ @ $ O @ $ q b > $ > > $ q E O = $ q w 7 # U $ > w U I ",
"b > @.O @ > 7 > $ > > b b > 5.q > $ = = - > % $ > q 5.w $ $ % I ",
"L > ; = > $ w E > > > 7 d L h.L = q d > 5 > O @ q ] i.> @ % w q ",
"$ ; = $ % @ $ q O O 7 q $ b 7 > L d q L > # @ $ d h.a.> - > 3.b ",
"= & = % @   @ w O q q > $ > { > w % % > X @ $ = > r.e.@.- & = = ",
"- = = O = - > @ @ Q Q q q w % > $ @ > @ > @ > $ 7 5.L -.b -   X ",
"& O > @ -.L @ $ @ # % $ 7 $ w I I % % % @ O @ $ q E d $ *.= > O ",
"d q q @.0.7 b d w w % % > $ q > w % w @ X > > > I d > > 0.>.5 @ ",
"$ $ Q @.L L L - 7 ] > > q $ $ $ q > U @ X $ > d q > % > q >.q > ",
"% > @ : ; V -.{ L q > q I $ $ > > > w $ O @ @ $ = & > q $ 7 Q I ",
"$ @ O = @.-.{ @ b O % q w q % % I % 7 > = o = > > 7 $ O O b ] $ ",
"> % @ > d.b d > b > > b w I w q > > - > = O O $ $ > > O $ % % $ ",
"q Q $ > b I 7 q b U E 5.w % w b > @ @ b > X $ > $ > O @ @ @ @ @ ",
"@ q % 0.*.> b > q { E ] U % $ % 7 q % @ @ O   O O = = X q $ @ > ",
"q I q L 0.$ 7 L q > > r w w % % w $ @ X $ $ @ @ @ 5 = & > @ > O ",
"> w b 7 i.$ > > > @ Q { > w % w @ @ O @ $ $ $ O - @.L :   @ d > "
};
