/* XPM */
static const char *collectible2[] = {
/* columns rows colors chars-per-pixel */
"32 32 10 1 ",
"  c #604800",
". c #6D4C41",
"X c #CB9500",
"o c #F8BB0B",
"O c #B88279",
"+ c #F7D76E",
"@ c #E8B6AC",
"# c #F6E4AE",
"$ c #F2D6D1",
"% c None",
/* pixels */
"%%%%%%%%%%%%%%%%%%%%%%%%%%%%%%%%",
"%%%%%%%%%%%%%%%%%%%%%%%%%%%%%%%%",
"%%%%%%%%%%%%%%.........%%%%%%%%%",
"%%%%%%%%%%%%..@$@@OOOOO..%%%%%%%",
"%%%%%%%%%%%.$@O@OOOO...@.%%%%%%%",
"%%%%%%%%%%%.@OOOO....@O.%%%%%%%%",
"%%%%%%%%%%.@OO.O..$$@OO.%%+X%%%%",
"%%%%%%%%..@OO....@O@OO.%%X%%X%%%",
"%%%%%%%.$@OO....$@O@@O.% %%% %%%",
"%%%%%%%.OO..$@@@@O.OO.. %   %%%%",
"%%%%%%%...@@@O.O@O..+X   %%%%%%%",
"%%%%%%%%....OOO..++X...%% X+%%%%",
"%%%%%%%%%%%%  XX+...@.O..%%%X%%%",
"%%%%%%%%%%%..@..@@O.O@OOO.%%%X%%",
"%%%%%%%%%..$@O.@@@@OO@@OOO.%%%%%",
"%%%%%%%..$$@@O@@@@$OO@@OOOO.%%%%",
"%%%%%%.@$@@@@@@@@@$O@@@@OOOO.%%%",
"%%%%%.@@$$@@@@$$@$$@@@@@OOOO.%%%",
"%%%%%.@$$$$@@$$$$$@@$@@@OOOO.%%%",
"%%%%.O@$$$$$$$$$$@@$$@@@OOOO.%%%",
"%%%%.@@$$$$$$$$$@@$@@@@OO@OO.%%%",
"%%%.O@@@$$$@@@@@@@@@@@OO@@OO.%%%",
"%%%.OO@@@@@@@@@@@   OOOO@OOO.%%%",
"%%%%.OO@@@@@OOOO +++  OOOOO.%%%%",
"%%%%.OOOOOOOOOO ++++oo OOOO.%%%%",
"%%%%%.OOOOOOOO ##++oX    O.%%%%%",
"%%%%%%....OOOO #oXXX #+oX %%%%%%",
"%%%%%%%%%%..... ##+X #+XX %%%%%%",
"%%%%%%%%%%%%%%% ++oX +oXXX %%%%%",
"%%%%%%%%%%%%%%%%     o++oX %%%%%",
"%%%%%%%%%%%%%%%%%%%%%     %%%%%%",
"%%%%%%%%%%%%%%%%%%%%%%%%%%%%%%%%"
};
