/* XPM */
static const char *collectible1[] = {
/* columns rows colors chars-per-pixel */
"32 32 7 1 ",
"  c #3B2027",
". c #7D3833",
"X c #AB5130",
"o c #CF752B",
"O c #F0B541",
"+ c #FFEE83",
"@ c #0xFF0000",
/* pixels */
"@@@@@@@@@@@@@@@@@@........@@@@@@",
"@@@@@@@@@@@@@@@@@@........@@@@@@",
"@@@@@@@@@@@@@@@@..++OOOO++..@@@@",
"@@@@@@@@@@@@@@@@..++OOOO++..@@@@",
"@@@@@@@@@@@@@@..++OO    OOOO..@@",
"@@@@@@@@@@@@@@..++OO    OOOO..@@",
"@@@@@@@@@@@@@@..++  @@@@  oo  @@",
"@@@@@@@@@@@@@@..++  @@@@  oo  @@",
"@@@@@@@@@@@@@@..OO  @@@@  XX  @@",
"@@@@@@@@@@@@@@..OO  @@@@  XX  @@",
"@@@@@@@@@@@@@@..OOoo    ooXX  @@",
"@@@@@@@@@@@@@@..OOoo    ooXX  @@",
"@@@@@@@@@@@@..OOOOXXXXooXX  @@@@",
"@@@@@@@@@@@@..OOOOXXXXooXX  @@@@",
"@@@@@@@@@@..++OOoo        @@@@@@",
"@@@@@@@@@@..++OOoo        @@@@@@",
"@@@@@@@@..++OOoo  @@@@@@@@@@@@@@",
"@@@@@@@@..++OOoo  @@@@@@@@@@@@@@",
"@@@@@@..OOOOoo  @@@@@@@@@@@@@@@@",
"@@@@@@..OOOOoo  @@@@@@@@@@@@@@@@",
"@@@@..OOOOoo  @@@@@@@@@@@@@@@@@@",
"@@@@..OOOOoo  @@@@@@@@@@@@@@@@@@",
"@@..OOOOoo  @@@@@@@@@@@@@@@@@@@@",
"@@..OOOOoo  @@@@@@@@@@@@@@@@@@@@",
"@@..ooXX++..@@@@@@@@@@@@@@@@@@@@",
"@@..ooXX++..@@@@@@@@@@@@@@@@@@@@",
"@@  XX++OO++..@@@@@@@@@@@@@@@@@@",
"@@  XX++OO++..@@@@@@@@@@@@@@@@@@",
"@@@@  ooooOO..@@@@@@@@@@@@@@@@@@",
"@@@@  ooooOO..@@@@@@@@@@@@@@@@@@",
"@@@@@@      @@@@@@@@@@@@@@@@@@@@",
"@@@@@@      @@@@@@@@@@@@@@@@@@@@"
};
