/* XPM */
static const char *gate2[] = {
/* columns rows colors chars-per-pixel */
"32 32 5 1 ",
"  c brown",
". c #474B6C",
"X c #6F757F",
"o c #A1AAB8",
"O c #0xFF0000",
/* pixels */
"OOOOOOOOOOOOOOOOOOOOOOOOOOOOOOOO",
"OOOOOOOOOOOOOO    OOOOOOOOOOOOOO",
"OOOOOOOOOOOO  XXXX  OOOOOOOOOOOO",
"OOOOOOOOOO  XXXXXXXX  OOOOOOOOOO",
"OOOOOOOOO XXXX....XXXX OOOOOOOOO",
"OOOOOOOO XXX..    ..XXX OOOOOOOO",
"OOOOOOO XXX.        .XXX OOOOOOO",
"OOOOOOO XX.          .XX OOOOOOO",
"OOOOOO XXX.          .XXX OOOOOO",
"OOOOOO XX.            .XX OOOOOO",
"OOOOOO XX.            .XX OOOOOO",
"OOOOO XX.              .XX OOOOO",
"OOOOO XX.              .XX OOOOO",
"OOOOO XX.              .XX OOOOO",
"OOOOO XX.              .XX OOOOO",
"OOOOO XX.              .XX OOOOO",
"OOOOO XX.              .XX OOOOO",
"OOOOO XX.              .XX OOOOO",
"OOOOO XX.              .XX OOOOO",
"OOOOO XX.              .XX OOOOO",
"OOOOO XX.              .XX OOOOO",
"OOOOO XX.              .XX OOOOO",
"OOOOO XX.              .XX OOOOO",
"OOOOO XX.              .XX OOOOO",
"OOOOO XX.              .XX OOOOO",
"OOOOO XX.              .XX OOOOO",
"OOOOO XX.              .XX OOOOO",
"OOOO  ....................  OOOO",
"OOO oooooooooooooooooooooooo OOO",
"OOO oXXXXXXXXXXXXXXXXXXXXXXX OOO",
"OOO                          OOO",
"OOOOOOOOOOOOOOOOOOOOOOOOOOOOOOOO"
};
