/* XPM */
static const char *gate1[] = {
/* columns rows colors chars-per-pixel */
"32 32 6 1 ",
"  c black",
". c #474B6C",
"X c #6F757F",
"o c #A1AAB8",
"O c #D0D1D3",
"+ c #0xFF0000",
/* pixels */
"++++++++++++++++++++++++++++++++",
"++++++++++++++    ++++++++++++++",
"++++++++++++  XXXX  ++++++++++++",
"++++++++++  XXXXXXXX  ++++++++++",
"+++++++++ XXXX....XXXX +++++++++",
"++++++++ XXX...  ...XXX ++++++++",
"+++++++ XXX.  .  .  .XXX +++++++",
"+++++++ XX..  X  X  ..XX +++++++",
"++++++ XXX.X  X  X  X.XXX ++++++",
"++++++ XX. X  X  X  X .XX ++++++",
"++++++ XX. X  X  X  X .XX ++++++",
"+++++ XX.  X  X  O  X  .XX +++++",
"+++++ XX.  X  O  O  X  .XX +++++",
"+++++ XX.  O  O  X  X  .XX +++++",
"+++++ XX.  X  O  O  X  .XX +++++",
"+++++ XX.  O  O  O  O  .XX +++++",
"+++++ XX.  O  O  O  O  .XX +++++",
"+++++ XX.  O  O  O  O  .XX +++++",
"+++++ XX.  X  O  X  O  .XX +++++",
"+++++ XX.  X  X  O  O  .XX +++++",
"+++++ XX.  X  O  O  X  .XX +++++",
"+++++ XX.  O  O  O  O  .XX +++++",
"+++++ XX.  O  O  O  O  .XX +++++",
"+++++ XX.  X  O  O  X  .XX +++++",
"+++++ XX.  X  X  X  X  .XX +++++",
"+++++ XX.  X  X  X  X  .XX +++++",
"+++++ XX.  X  X  X  X  .XX +++++",
"++++  ....................  ++++",
"+++ oooooooooooooooooooooooo +++",
"+++ oXXXXXXXXXXXXXXXXXXXXXXX +++",
"+++                          +++",
"++++++++++++++++++++++++++++++++"
};
