/* XPM */
static char *c40d6e3302154695e57dc857d47bdf02p9o0EsmBzqUvqnNS[] = {
/* columns rows colors chars-per-pixel */
"32 32 6 1 ",
"  c #D840FB",
". c #780BF7",
"X c #FCFEFE",
"o c #04193F",
"O c #F489F6",
"+ c #0xFF0000",
/* pixels */
"++++++++++++++++++++++++++++++++",
"++++++++++++++++++++++++++++++++",
"++++++++++++++++++++++++++++++++",
"++++++++++++++++++++++++++++++++",
"++++++++++oo+++++oo+++++++++++++",
"+++++++++oOOo+++o..o++++++++++++",
"++++++++oOOOOo+o...o++++++++++++",
"++++++++oOOOOOoo....o+++++++++++",
"+++++++++oOOO    ...o+++++++++++",
"+++++++++o OOOOO   ..o++++++++++",
"++++++++o OOOOOOO   .o++++++++++",
"++++++++oOOOOOXXXXXX..o+++++++++",
"+++++++o OOOOXXXXXXXX.o+++++++++",
"+++++++oOOOOXXoooXXXoo.o++++++++",
"+++++++oOOOOXooXXoXooXoo++++++++",
"+++++++oOOOOXooXXoXooXoo++++++++",
"+++++++oOOOOXoooooXooooo++++++++",
"+++++++o OOOOXoooXXXoo.o++++++++",
"++++++++oOOOOXXXXXXXXXo+++++++++",
"++++++++o OOOO XXXXXX.o+++++++++",
"+++++++++oOOOOO   ...o++++++++++",
"+++++++++oOOOOOOXXX.o+++++++++++",
"++++++++oOOOO.OXXXX..o++++++++++",
"++++++++oOOOO.OXXXXX.o++++++++++",
"+++++++oOOOO. XXXXXX..o+++++++++",
"+++++++oOOOO. XXXXXX..o+++++++++",
"+++++++oOOO. OXXXXXX..o+++++++++",
"++++++++o..  OOXXXX.oo++++++++++",
"+++++++++o  OOO   ..o+++++++++++",
"+++++++++oOOOOoo....o+++++++++++",
"+++++++++oOOOOoo...o++++++++++++",
"+++++++++oOOOo+o...o++++++++++++"
};
