/* XPM */
static const char *player2[] = {
/* columns rows colors chars-per-pixel */
"32 32 6 1 ",
"  c #04193F",
". c #780BF7",
"X c #D840FB",
"o c #F489F6",
"O c #FCFEFE",
"+ c #0xFF0000",
/* pixels */
"++++++++++++++++++++++++++++++++",
"++++++++++++++++++++++++++++++++",
"++++++++++++++++++++++++++++++++",
"++++++++++++++++++++++++++++++++",
"+++++++++++++  +++++  ++++++++++",
"++++++++++++ .. +++ oo +++++++++",
"++++++++++++ ... + oooo ++++++++",
"+++++++++++ ....  ooooo ++++++++",
"+++++++++++ ...XXXXooo +++++++++",
"++++++++++ ..XXXoooooX +++++++++",
"++++++++++ .XXXoooooooX ++++++++",
"+++++++++ ..OOOOOOooooo ++++++++",
"+++++++++ .OOOOOOOOooooX +++++++",
"++++++++ .  OOO   OOoooo +++++++",
"++++++++  O  O OO  Ooooo +++++++",
"++++++++  O  O OO  Ooooo +++++++",
"++++++++     O     Ooooo +++++++",
"++++++++ .  OOO   OooooX +++++++",
"+++++++++ OOOOOOOOOoooo ++++++++",
"+++++++++ .OOOOOOXooooX ++++++++",
"++++++++++ ...XXXooooo +++++++++",
"+++++++++++ .OOOoooooo +++++++++",
"++++++++++ ..OOOOo.oooo ++++++++",
"++++++++++ .OOOOOo.oooo ++++++++",
"+++++++++ ..OOOOOOX.oooo +++++++",
"+++++++++ ..OOOOOOX.oooo +++++++",
"+++++++++ ..OOOOOOoX.ooo +++++++",
"++++++++++  .OOOOooXX.. ++++++++",
"+++++++++++ ..XXXoooXX +++++++++",
"+++++++++++ ....  oooo +++++++++",
"++++++++++++ ...  oooo +++++++++",
"++++++++++++ ... + ooo +++++++++"
};
