/* XPM */
static const char *wall3[] = {
/* columns rows colors chars-per-pixel */
"31 32 150 2 ",
"   c #5B271D",
".  c #6C231C",
"X  c #71261E",
"o  c #77291F",
"O  c #782A1F",
"+  c #4B2E21",
"@  c #4F2B2F",
"#  c #532424",
"$  c #5B2321",
"%  c #512729",
"&  c #51292C",
"*  c #582F2E",
"=  c #4E3122",
"-  c #543322",
";  c #5C3324",
":  c #553923",
">  c #5A3C23",
",  c #54312C",
"<  c #5D312D",
"1  c #573E29",
"2  c #4E2D33",
"3  c #4B2E3B",
"4  c #5C2633",
"5  c #522F31",
"6  c #592F30",
"7  c #522E3D",
"8  c #5C2F3D",
"9  c #4E313C",
"0  c #503330",
"q  c #5D3D35",
"w  c #6F2322",
"e  c #642B20",
"r  c #602E2A",
"t  c #752623",
"y  c #742D21",
"u  c #7B2A21",
"i  c #76232C",
"p  c #7A262A",
"a  c #7E282C",
"s  c #643324",
"d  c #6B3324",
"f  c #643B23",
"g  c #6D3C23",
"h  c #623329",
"j  c #6B322B",
"k  c #733425",
"l  c #7A3424",
"z  c #753824",
"x  c #7B3C24",
"c  c #73322B",
"v  c #7C332A",
"b  c #733B2A",
"n  c #7B3E2E",
"m  c #742932",
"M  c #62303A",
"N  c #6A313B",
"B  c #723234",
"V  c #793F33",
"C  c #71323A",
"Z  c #5D4422",
"A  c #5F4922",
"S  c #52413D",
"D  c #714224",
"F  c #71432C",
"G  c #3D2A5E",
"H  c #3D246B",
"J  c #2D2975",
"K  c #34237F",
"L  c #452743",
"P  c #4A2A46",
"I  c #432D4A",
"U  c #4D2E4B",
"Y  c #592E43",
"T  c #543A4B",
"R  c #442A52",
"E  c #4C2D5B",
"W  c #582E58",
"Q  c #682F4E",
"!  c #772F4E",
"~  c #673248",
"^  c #703042",
"/  c #6A2D5E",
"(  c #722C5E",
")  c #7F2C5C",
"_  c #4D286A",
"`  c #5D2669",
"'  c #522B68",
"]  c #482A77",
"[  c #44227D",
"{  c #592B7E",
"}  c #662C61",
"|  c #662B6B",
" . c #752969",
".. c #722978",
"X. c #812D24",
"o. c #842C2C",
"O. c #843325",
"+. c #8B3426",
"@. c #823925",
"#. c #853329",
"$. c #8D332B",
"%. c #83392D",
"&. c #90332F",
"*. c #802635",
"=. c #852A33",
"-. c #8C2F31",
";. c #85273C",
":. c #87283C",
">. c #8B2A3E",
",. c #932F3D",
"<. c #833233",
"1. c #8C3233",
"2. c #84313B",
"3. c #8D323B",
"4. c #873838",
"5. c #923234",
"6. c #95313B",
"7. c #8E2D42",
"8. c #822D4F",
"9. c #952E43",
"0. c #992F46",
"q. c #962E4A",
"w. c #9B2F4B",
"e. c #8D3040",
"r. c #963042",
"t. c #983043",
"y. c #983044",
"u. c #852E50",
"i. c #932E51",
"p. c #952E50",
"a. c #992E51",
"s. c #9D2E50",
"d. c #341E8C",
"f. c #321B92",
"g. c #301D96",
"h. c #2F208E",
"j. c #312283",
"k. c #3B269F",
"l. c #371CA6",
"z. c #3A25A6",
"x. c #4E2886",
"c. c #42278E",
"v. c #482888",
"b. c #672882",
"n. c #4025A8",
"m. c #5626A6",
"M. c #4325B9",
"N. c #4124C3",
"B. c #4624C1",
"V. c #0x000000",
/* pixels */
"V.V.V.V.V.V.V.V.V.V.V.V.V.V.V.p ;.*.V.V.V.V.V.V.V.V.V.V.V.V.V.",
"V.V.V.V.V.V.V.V.V.V.V.V.V.V.X 0.0.5.0.t V.V.V.V.V.V.V.V.V.V.V.",
"V.V.V.V.V.V.V.V.V.V.V.w a :.q.6.6.6.5.=.V.V.V.V.V.V.V.V.V.V.V.",
"V.V.V.V.V.V.V.V.V.p q.$.5.6.w.6.+.+.5.$.V.V.V.V.V.V.V.V.V.V.V.",
"V.V.V.V.V.V.V.V.a 6.s.0.0.t.t.6.5.0.a.0.>.V.V.V.V.V.V.V.V.V.V.",
"V.V.V.V.V.V.V.i 0.$.5.5.5.5.s.s.s.q.m.( w.>.V.V.V.V.V.V.V.V.V.",
"V.V.V.V.V.V.V.p 0.w.y.5.5.6.s.w.0.9.c.} 0.7.>.$.5.u V.V.V.V.V.",
"V.V.V.V.V.V.V.V.u +.O.O.3.5.5.t.w.w.5.5.t.0.0.5.t.6.O.t . V.V.",
"V.V.V.V.V.u $.u o.-.*.X.D y.s.t.t.s.s.t.s.0.0. .a.0.$.0.+.i V.",
"V.V.V.i ,.y.6.6.6.y.0.6.n 4.t.+.t.s.w.6.s.w.) N./ 5.6.0.+.9.. ",
"V.V.V.q.t.s.5.0.5.6.b.! w.s.w.6.5.5.5.0.t.y.1.Q i.0.6.5.5.t.u ",
"V.V.V.o.6.0.$.5.y.0.n.' 6.0.5.y.6.1.%.$.t.0.+.5.s.w.6.+.&.+.o ",
"V.V.V.. u u . $.$.+.<.p.t.6.t.s...~ D +.$.O.t 0.s.s.0.$.6.X.V.",
"V.V.=.7.5.5.0.5.0.5.+.5.w.s.s.q.v.T x 5.+.j 4 w.0.t.5.9.i V.V.",
"V.9.5.+.3.7.6.$.0.t.+.5.5.5.5.6.s.F $.5.O.b.k.m 0.0.0.5.. V.V.",
"u 6.+.$.m.x.t.w.w.5.5.+.V w.s.s.r.%.t.$.&.^ W 1.5.6.0.0.O.V.V.",
"O &.+.v | } t.5.$.6.+.+.b n w.w.$.$.$.5.6.+.&.O.v 5.6.5.6.X V.",
"V.y s ; 2.w.s.w.0.&.$.u.M.S +.+.+.@.d j q.6.e.Y k &.&.$.t.o V.",
"V.V.V.  e $.$.$.O.t.$.2.] q z +.@.g $.k k #.{ z.2.$.$.1.$.O V.",
"V.V.V.  s +.O.O.k 6.6.5.$.; h c x +.$.$.s O.B U 1.t.$.s d V.V.",
"V.V.f.3 , c O.k < $.5.1.k , , #.t.5.8.c ; k d j 7 ` N ; V.V.V.",
"V.V.j.9 ; 2 < d 2 Y [ N +.< 6 +.6.7.B.E k O.s , 3 K I # V.V.V.",
"V.V.; ; ; 5 v +.k c 8 j Z 0 , 6 < 6 E C k j 0 2 2 5 , , # V.V.",
"V.V.; ; 0 R +.+.+.+.s ; > 1 : 0 2 h O.k , c +.j 5 ; ; , # V.V.",
"V.V.# 2 H g.M +.+.O.l ; 0 A > Z , 2 , , H +.v 2 2 , 5 @ V.V.V.",
"V.V.V.# 2 L # . X & P 3 r Z x Z > # # % R G 2 d.H & % V.V.V.V.",
"V.V.V.V.V.V.V.V.V.V.d.8 > Z Z Z Z + V.V.$ # V.j.J V.V.V.V.V.V.",
"V.V.V.V.V.V.V.V.V.V.* f > Z A > Z > s V.V.V.V.V.V.V.V.V.V.V.V.",
"V.V.V.V.V.V.V.V.V.V.V.: k f g f > l - - V.V.V.V.V.V.V.V.V.V.V.",
"V.V.V.V.V.V.V.V.V.V.V.V.- Z ; ; Z s V.V.V.V.V.V.V.V.V.V.V.V.V.",
"V.V.V.V.V.V.V.V.V.l.h.V.V.= V.V.: V.V.V.V.V.V.V.V.V.V.V.V.V.V.",
"V.V.V.V.V.V.V.V.V._ J V.V.V.V.V.V.V.V.V.V.V.V.V.V.V.V.V.V.V.V."
};
