/* XPM */
static const char *wall1[] = {
/* columns rows colors chars-per-pixel */
"32 32 153 2 ",
"   c #1F1813",
".  c #251D16",
"X  c #281E16",
"o  c #221D1A",
"O  c #26201C",
"+  c #2A231E",
"@  c #30261F",
"#  c #272320",
"$  c #2B2521",
"%  c #2E2924",
"&  c #312B26",
"*  c #332E29",
"=  c #382F29",
"-  c #36312D",
";  c #3B342E",
":  c #3C3631",
">  c #3E3833",
",  c #4A392A",
"<  c #403730",
"1  c #443B33",
"2  c #4A3E33",
"3  c #453E39",
"4  c #483F38",
"5  c #503F30",
"6  c #4D4137",
"7  c #46403B",
"8  c #4C433C",
"9  c #544334",
"0  c #5A4533",
"q  c #52463C",
"w  c #594738",
"e  c #54483F",
"r  c #5B4B3D",
"t  c #4D4641",
"y  c #4F4843",
"u  c #504740",
"i  c #544B44",
"p  c #5A4E44",
"a  c #554E49",
"s  c #584F48",
"d  c #5E5045",
"f  c #57504B",
"g  c #5A524B",
"h  c #5D5651",
"j  c #5F5853",
"k  c #625244",
"l  c #62564B",
"z  c #64584E",
"x  c #6A594B",
"c  c #605750",
"v  c #655C55",
"b  c #645C55",
"n  c #675C54",
"m  c #645C56",
"M  c #645D57",
"N  c #655D57",
"B  c #665D56",
"V  c #665E57",
"C  c #625A54",
"Z  c #695D53",
"A  c #6A5D53",
"S  c #6A5E53",
"D  c #635D58",
"F  c #635E59",
"G  c #625E5B",
"H  c #645D58",
"J  c #645E59",
"K  c #665E58",
"L  c #665F58",
"P  c #675F58",
"I  c #665F59",
"U  c #645E5A",
"Y  c #645F5A",
"T  c #655F5A",
"R  c #645F5B",
"E  c #655F5B",
"W  c #655F59",
"Q  c #6B6056",
"!  c #66605A",
"~  c #66605B",
"^  c #67605B",
"/  c #66605C",
"(  c #66615C",
")  c #67615C",
"_  c #67615D",
"`  c #67625D",
"'  c #67605B",
"]  c #68605A",
"[  c #68615B",
"{  c #6A615A",
"}  c #68615C",
"|  c #69625C",
" . c #68625D",
".. c #6A625C",
"X. c #6A635D",
"o. c #68625E",
"O. c #68635E",
"+. c #69635E",
"@. c #6A635E",
"#. c #6A645F",
"$. c #6B645F",
"%. c #6C655F",
"&. c #6B625B",
"*. c #706154",
"=. c #716254",
"-. c #70665F",
";. c #71665D",
":. c #73685E",
">. c #6A6460",
",. c #6B6661",
"<. c #6D6660",
"1. c #6C6661",
"2. c #6C6762",
"3. c #6D6762",
"4. c #6E6762",
"5. c #6C6560",
"6. c #6F6862",
"7. c #6F6863",
"8. c #6E6964",
"9. c #6F6964",
"0. c #6E6965",
"q. c #6F6A65",
"w. c #6E6A66",
"e. c #6E6864",
"r. c #706A65",
"t. c #726B65",
"y. c #736B65",
"u. c #716B66",
"i. c #736C66",
"p. c #756D66",
"a. c #726B64",
"s. c #716D69",
"d. c #726D69",
"f. c #736D69",
"g. c #736F6B",
"h. c #746D68",
"j. c #746E69",
"k. c #746F6B",
"l. c #756F6B",
"z. c #746F6C",
"x. c #776F6A",
"c. c #75716D",
"v. c #76716D",
"b. c #797068",
"n. c #78736F",
"m. c #7D746C",
"M. c #79726D",
"N. c #797571",
"B. c #7B7571",
"V. c #7F7873",
"C. c #867E77",
"Z. c #817C78",
"A. c #827D79",
/* pixels */
"t % O o O * * * * & & & & & * * & $ O o > 8 2 2 8 8 y a f y t y ",
"B.d.% % G Z.B.c.w.f a a i 8 a a 9 3 $ > p.&.^ M M =.p.m.b.-.7.w.",
"..j.- > w.j.d./ j y t 8 8 8 8 i u j.> y j.j h g g l g [ x $.^ ^ ",
"..7.: 3 d.D C / a i 8 7 4 3 3 4 8 u.> y j.^ L / C b f h M S ..$.",
"u.u.- 7 2.g i j g a i 8 8 : t 7 8 g > t n.$.L C C L C L ..M ^ ^ ",
"j.i.* : j u t i 8 8 8 7 t i 8 u f j : a c.L L / g [ w.M 2.$.>...",
"L ..* : y 8 8 u i 3 3 y y f i i i g > y j.d.C g L 2.$.....2./ ..",
"h h * : 7 7 7 a t 8 u g g g f t i g ; i u.2.L M M ^ D G C ..g f ",
"g h & * 8 4 t a y i i h f ^ g g e i ; t w.j.[ C C D G L 2.M h g ",
"f f * = 2 2 p f j h ..M L L j u i f ; 7 ..D ..$.j / j C C D g f ",
"h C & : i 9 p p S Z M 7.j.L C g f g : 3 / M 2.C G j C j g g g C ",
"g 2.- : f i g g [ Z [ a.n.$.C f h g ; 3 C g h C L C h a a C g g ",
"M [ = : f h C z L 7.c.V.w.&.L g D C ; > f g f f D i i a f g h g ",
"C &.% ; C h h C B $...&.u.z g C g C * 1 f f u f f f i f g g p g ",
"p 8 o & g j D ^ :.c.u.&.i.S k r i 8 $ + 8 u i h u i t 8 u u i i ",
"* O + o : 7 t y 7 a 7 8 1 4 4 5 ; & O $ $ - & & & $ + $ $ = ; = ",
"i p a y i a a i 4 X   o > t u 8 8 3 3 7 t 7 8 t 7 & O % 3 7 8 t ",
"B M ^ ^ C 2.7.a.;.1 O ; -.&.p C f C L / ^ z L D M g % 7 g i f &.",
"f f a i g h B u.S p o 3 h g f p g i g g p g u g k S 3 f f 8 8 f ",
"u p 0 g C [ C $.y.i o 3 e f f 8 h a g a u 8 e w e S 3 a a t 8 8 ",
"8 9 p C l ^ >...n.8 o 1 i e 8 u i u a i 8 8 1 4 q p 1 i a a 8 t ",
"e 9 r l z [ $.w.i.u O 6 u u 8 8 1 q 3 e t 8 8 e C Q 2 L f f 8 u ",
"z w p x x &.&.c.Z.f O > g t e e 4 8 9 e i 8 a e z &.3 ..c f f g ",
"r g C [ :.:.u.V.Z.f o t g a a h 3 8 8 6 t i a e s M 3 Z &.h p p ",
"r g C z &.>./ n.C.g . 8 f i i g 9 e i 8 u u a g M Z , z l c g p ",
"r 9 d p f j 2.p.b.a X 1 C g j g f i i 8 u 7 i h M =.4 g B g p g ",
"q 0 r i g M C ..c.f X t [ j g i h i u p i i k S B x , Q k e 8 8 ",
"8 e e f g h C [ n.a o t 7.C g a g f f i i q 9 e r Z 1 g g i 8 8 ",
"9 i e f j C ..Z u.f o t u.h a g g g a i a i e r l C ; h f q 8 2 ",
"u r p C L ..$.>.2.7 o 7 h C i a c D D C f i d g C g : g M i 8 e ",
"i i u p f L C L a % o $ t a 8 8 u g i p g e q i p 1 o u d u u 8 ",
"$ $ + + + $ + + + # % O o + + + + $ + + + % @ + & O o o & - & % "
};
