/* XPM */
static const char *wall2[] = {
/* columns rows colors chars-per-pixel */
"32 32 153 2 ",
"   c #332E26",
".  c #36322B",
"X  c #39352D",
"o  c #3E382F",
"O  c #3A3731",
"+  c #3C3A33",
"@  c #3E3D39",
"#  c #433E35",
"$  c #3E413C",
"%  c #464137",
"&  c #43433C",
"*  c #4B453C",
"=  c #444A3F",
"-  c #4C4A3D",
";  c #424543",
":  c #494741",
">  c #474946",
",  c #4B4A43",
"<  c #454748",
"1  c #46494A",
"2  c #4C4D4B",
"3  c #534D44",
"4  c #534F49",
"5  c #4A5343",
"6  c #4C514D",
"7  c #525146",
"8  c #5A5246",
"9  c #54514C",
"0  c #5A544D",
"q  c #575A4D",
"w  c #5E584F",
"e  c #4A4D50",
"r  c #4D5153",
"t  c #555452",
"y  c #595652",
"u  c #545856",
"i  c #5C5955",
"p  c #555A5C",
"a  c #5D5C5B",
"s  c #61584E",
"d  c #635C54",
"f  c #615E5B",
"g  c #6C6257",
"h  c #64615D",
"j  c #6B645C",
"k  c #736A5E",
"l  c #5C5E62",
"z  c #5E6265",
"x  c #5E6369",
"c  c #646363",
"v  c #6A6663",
"b  c #636C66",
"n  c #6D6964",
"m  c #636569",
"M  c #66696C",
"N  c #6C6B6B",
"B  c #726B62",
"V  c #796E63",
"C  c #716E6C",
"Z  c #75716E",
"A  c #7A736C",
"S  c #666C73",
"D  c #6B6E73",
"F  c #6D7174",
"G  c #6C727B",
"H  c #737273",
"J  c #7A7674",
"K  c #7D7976",
"L  c #72767B",
"P  c #72757B",
"I  c #757679",
"U  c #777778",
"Y  c #74767B",
"T  c #70757C",
"R  c #72767D",
"E  c #73767A",
"W  c #73787F",
"Q  c #75787C",
"!  c #76797D",
"~  c #797879",
"^  c #7B7979",
"/  c #7E7C7D",
"(  c #7F7D7C",
")  c #7A7B7D",
"_  c #83786E",
"`  c #837B73",
"'  c #867C72",
"]  c #857C74",
"[  c #847D76",
"{  c #827A73",
"}  c #8A7E73",
"|  c #817C79",
" . c #827F7E",
".. c #827E7B",
"X. c #8D8276",
"o. c #86817D",
"O. c #8A837C",
"+. c #8B827B",
"@. c #92887D",
"#. c #6E7680",
"$. c #737980",
"%. c #727A83",
"&. c #777B81",
"*. c #767C84",
"=. c #787B81",
"-. c #7B7F86",
";. c #7A7E83",
":. c #807F81",
">. c #807F80",
",. c #7C8086",
"<. c #7C8087",
"1. c #7C838C",
"2. c #7E8691",
"3. c #838383",
"4. c #878381",
"5. c #838385",
"6. c #888481",
"7. c #8B8683",
"8. c #8E8986",
"9. c #87878B",
"0. c #83868C",
"q. c #82878E",
"w. c #83868B",
"e. c #82888D",
"r. c #8B8989",
"t. c #8C8B8D",
"y. c #918C89",
"u. c #938E8A",
"i. c #97928D",
"p. c #9B938B",
"a. c #818690",
"s. c #858A93",
"d. c #8B8E94",
"f. c #838C98",
"g. c #8F9196",
"h. c #8D929A",
"j. c #919092",
"k. c #939191",
"l. c #999593",
"z. c #90959F",
"x. c #93969C",
"c. c #9C9A9B",
"v. c #A09A97",
"b. c #959CA7",
"n. c #999DA4",
"m. c #9AA1AB",
"M. c #AAA4A1",
"N. c #AEA9A6",
"B. c #A2A6AD",
"V. c #A0A5AE",
"C. c #A9A7A8",
"Z. c #B0A9A6",
"A. c #AEAFB6",
/* pixels */
"~ A O.y.d.D G G D p 9 l l x x M q.q.z H L G l x W 6 d U %.D S R ",
"Q V.j.( K N v c v z f c v c u i H U a N v c i i M r v ( N v f f ",
"h ,.-.H f y a Z K 1 9 c N h y u y v i i h d j h i e d C c h y h ",
"C d c i B n y h v 1 y a v K a 9 a t 9 t c H $.c h < j _ A c f c ",
"d 0 y 9 k j g d % & 7 # # # # * : # % * * * 0 f w * - s B : # # ",
"* 2 2 2 > 9 * 8 > u 5 6 1 6 r > a p r a y 9 z 6 h a q 3 9 > 6 % ",
"Y W R M C =.U [ 3.$.r N l l Y N M c c H V { [ H v N & C r.3.L U ",
"i N C c a c 9.D a l $ f i t 2 f v d i N  .' k k c Z i <.h H N a ",
"0 y f u i c j d j m ; | v i f Z N Y c a h.n.V.3.9 ~ y [ d d s y ",
"N i h y 0 d V V A i $ J C 2 y f h h v 9 h t.4.H 4 n * u.} X.+.h ",
"w 9 X 2 3 d g { h ; = > 2 > + # * * % * + @ % , & 3 d { 8.{ X.h ",
"c Q F ( A +.@.i.i.x.$.Q r.t.F z i a.1.-.*.1.f.1.*.s. .o.7.8...F ",
"0 v *.d.7.7.C.A.d.v H { c U i 2 f j a a c N H v v v 2.m.m.N.c.p ",
"y d N d.s.d.z.n 9 y D U C c c ; y C 0 a f a f h f d C v L s.;.a ",
"0 j.8.C i 9 4 9 h v 4 c a 4 9 r i v 8 3 s j h N K o.| f i f N H ",
"7 h f 9 # + . X 8 3 + O . X X @ % 4 h k V Z 4 4 Z n # + % * n & ",
"G s.m.;.q e.*.s.g.*.G R #.1.S D f.#.%.Q 3 ) x q.t.t.8.g.S G G *.",
"M h h m 2 A v ^ r.N N N N N v v N N U x &  .h z -.w.w.N N a c D ",
"f a N D 2 J v N J c a f h a i y y m { l & j t i h N c v N f f f ",
"Z H v t 9 Z f v Z i i i v a i t f v r.l ; n h h f y v K C v H n ",
"d d y 9 , j f f 3 * # j * d 8 % # * : , , * w d h j : v 8 y w d ",
"g k * u b u 2 < 1 1 1 r > & & r r 2 z z z p N K h N l F M q w 3 ",
";.) H s.-.Q -.5.N Q Y 5.-.p i ) Y H K Q =.$.,.h.s.Y Q 5.1.F w Q ",
"d f h 9 t y 9 d h v h v f r y n a N Z v f h c h d d k { c 2 h g ",
"{ k B i 9 i v A A U i f i e d v c J j f i C N c Z 7.p.8./ r c ) ",
"+.+.B y f B K y.l.v 4 f y < 7 j 9 +.+.i C A ( d.c.Z.M.l.f 1 d K ",
"V V g 8 j ^ ^ v , O O , @ $ , 9 + , > + 4 * * 7 * 3 * * # 2 , s ",
"9.N F 6 j.Q b.-.-.G G d.x.Q =.Y $.H s.> h N *.d.9.h R 1.h.G ,.U ",
"L N l ; Z f a f f i h m v n c a v a a 2 A f a F L c i h j j N q.",
"9 v  .; B f t f a N f y D N i a a t j 4 V A y t i c B ' ` O.a i ",
"9 f Q + n y 9 9 d d 4 w 4 0 0 4 9 N n.: v.C y 9 c ) 7.u.p.7.y f ",
"# 9 # % # . X   X . + . X X X o 4 - 4 d j 8 + o 3 ;.t.M.i.t 8 4 "
};
